X:8
T:The Outlandish Knight
T:Lady Isabel and the Elf Knight
C:Trad
B:Bronson
O:"The Outlandish Knight." Sharp MSS., I557/. Sung by
O:Mrs. Jarrett, Bridgwater January 7, I908.
N:No lyrics in Bronson
M:6/8
L:1/8
K:C
C | CEG GAG | FEF C2 SG |
ABc dcA | G3-G2 SE | "(a)"GAB c2 E |
"(b)"FGA G2 SC | CEG GFD | C3-C2 |]
%Variant bars:
%"(a)"GAB cEG ||"(b)"FEF G2 C ||
